X:1
T:clarinet
T:Sonata for 2 Bassoons
T:Mvt I - Allegro in Eb Major
%%score 1 2
L:1/8
Q:1/4=104
M:4/4
K:Eb
V:1 bass nm="Bassoon" snm="Bsn."
V:2 bass nm="Bassoon" snm="Bsn."
V:1
!f! E4- ED/E/ (F/E/)B,/G,/ |!>(! F,2!>)!!f! A2- AG/F/ (E/D/)C/B,/ | %2
 (A,/G,/)F,/E,/ (D,/C,/)B,,/=A,,/ (B,,/C,/)D,/E,/ (F,/G,/)A,/=A,/ | %3
 (B,/=A,/)B,/D/ (E/D/)E/G/ B2 z2 | G2- (G/F/)E/D/ (E/D/)C/B,/ (C/B,/)A,/G,/ | %5
 (F,/G,/)A,/C/ F2- (F!>!A!>!G!>!F) | (!>!FE) (!turn!E4 FD) | E4 z2!p! E2 | (DC) C4 (EC) | %9
 (=A,B,) B,4 E2 | (D/E/D/C/ D/F/A/F/) (E/F/E/D/ E/G/B/G/) | (B3 A G) z!mp! G,2 | %12
 A,A,A,A, A,A,(CA,) | ^F,G,(G,G,,) (F,,G,,A,,G,,) | F,, z A, z G, z B, z | %15
 G, z E, z!f! (E,,/G,,/)B,,/E,/ (G,/B,/)E/G/ | (B4 AGFE) | %17
 !wedge!D(D/C/) !wedge!F(F/D/) !wedge!A(A/F/) !wedge!D(D/B,/) | E2 z2 z3/2!p! B,,<E,F,/ | %19
 G,4- (3(G,A,=A, (3B,F,G,) | (E,4 B,,) z z2 | z3/2 B,,/ =A,,>B,, C, z D, z | (D,2 E,2) z4 | %23
 z/!mf! G,/A,/B,/ C/(D,/B,/A,/ G,/F,/E,/D,/ E,/F,/E,/D,/) | %24
 (C,/A,,/E,,/A,,/ G,,/B,,/A,,/C,/) (B,,/D,/E,/F,/ (3G,F,E, | D,2) B,,2 F,,2 =A,,2 | %26
 !tenuto!B,,2!>(! !tenuto!B,,2 !tenuto!B,,2 !tenuto!B,,2!>)! | %27
!p! !tenuto!B,,2 !tenuto!B,,2 !tenuto!B,,2 !tenuto!B,,2 | B,,(=E,F,)D, B,, z D, z | %29
 (=A,,2 F,,2 B,,)!<(!(=A,/B,/ C/D/E/F/)!<)! |"_dolce"!mp! (G4 ^F/G/=A/G/ =F/E/D/C/) | %31
 (F3 G/=A/ B3 F) |{FG} (FE){EF} (ED){DE} (DC){CD} (CB,) | (DC^FG) B,2 (D/C/B,/C/) | (^C4 D2) z2 | %35
!f! !>!A2 (F>E) (D3 E) | F2 (B,2 !>!_C4 | B,2) z!<(! (E, F,G,A,!<)!=A,) | %38
 B,3!>(! (=B,, C,D,E,!>)!=E,) | F, z z (E, G,) z z (G, | F,).A,.F,.D, .B,,.G,.E,.C, | %41
 A,,4 z!mf! (E,F,^F, | G,) z (G,,/B,,/E,/G,/) (B,2 G2) | AA/E/ (C/A,/E,/C,/) A,, z (C,A,,) | %44
 E,,>G,, B,,4 A,,2 | G,,4 z3/2!f! B,<CD/ | E4- ED/E/ (F/E/)B,/G,/ | %47
 F,2 (A2- A/G/).B/.A/ (G/F/).E/.D/ | %48
 (C/B,/).A,/.G,/ (F,/E,/).D,/.C,/ (B,,/A,,/).G,,/.F,,/ (E,,/D,,/)C,/B,,/ | E,2 E2 z4 | z8 || %51
[K:F]!p![Q:1/4=58]"^\n"!<(! (A,4 B,2!<)! E,2) |!>(! F,2- (F,3/2E,/4D,/4!>)! C,)(C,F,A, | %53
"^Mvt II - Adagio in D Minor" (C2)!>(! F2-) (FDB,A,)!>)! | G,2- (G,3/2B,/4A,/4 !breath!G,2) (^G,2 | %55
 A,2-) A,/A,/A,/A,/"_cresc." A,(.^G,/.A,/ .=B,/.^C/.D/.E/) | (F4 E2) D2 | %57
!f! G2-!>(! (G/F/4E/4D/4C/4=B,/4A,/4 (G,)!>)!G,A,B,) |!>(! (D4 C2)!>)! z2 | %59
!p! (E,3 F,)!<(! (G,A,B,D)!<)! |!>(! (C3 A,!>)!!pp! F,2) z2 | %61
"_cresc." (3(F,/A,/C/)(3(F,/A,/C/) (3(F,/A,/C/)(3(G,/B,/D/) (3(A,/C/F/)(3(B,/D/F/) (3(C/F,/A,/(3C/_E/C/) | %62
 (3(D/B,/F,/(3D,/F,/B,/ (3D/B,/F,/(3D,/F,/B,/) (3(F,/D,/B,,/(3G,,/B,,/_E,/ (3G,/E,/B,,/(3F,,/B,,/D,/) | %63
 (_E,D,C,B,,) (^F,/G,/A,/G,/ B,/A,/C/B,/ | D/).B,/.B,/.B,/ z!>(! .A, z/ ((E,/G,/F,/)) z!>)! .C, | %65
 z/ .A,,/.A,,/.A,,/ z .B,, z (A,,B,,E,) | (E,2 F,2) z4 | z!<(! F,/G,/ A,/B,/C/D/!<)!!f! _E3 E | %68
 (_E(D D/)G/F/E/ D/!>(!C/B,/A,/) (G,A,/!>)!B,/) | %69
 ((E,2!<(! E,/)=B,,/C,/D,/ E,/F,/G,/A,/)!<)! (B,A,/G,/) | z2!f! (F,2 E,D, B,,2) | %71
 (A,,4 A,,)!<(!(A,,C,F,!<)! | (A,)F,,A,,C, F,2) z!mf! B,, | (A,,4{B,,A,,} G,,2)!p! (C,>A,) | %74
"_cresc." !trill(!TA,4{G,A,} B,4({A,B,)} | %75
 !trill)!C4{=B,C} D!f!B-!>(! (B/4A/4G/4F/4E/4G/4F/4>D/4)!>)! | %76
 D2"_dim." C2- (3C/(=B,/C/(3F/)(^G,/A,/ (3C/)(E,/F,/(3A,/)(=B,,/C,/ | %77
 F,/)!p!!<(!(E,/4F,/4G,/4!<)!A,/4B,/4C/4) D2-!>(! (D/C/=B,/C/ E/D/_B,/G,/)!>)! | %78
 F,2 z2!f! !tenuto!.A,,2 !tenuto!.A,,2 | (D,3 F,)!f! !tenuto!.A,2 !tenuto!.A,2 | A,6 A2- | %81
 A6 A,2- | !breath!A,6 (A,,2- | A,,4 =B,,2 ^C,2) | (D,4 ^C,=B,,A,,G,,) | (^F,,4 F,,)(F,,A,,D, | %86
 ^F,)(D,,!>(!^F,,A,, D,2 =B,,G,,)!>)! | (A,,4 A,,) z!p! A,,2 | %88
"_cresc." (3(F,D,)A,, (3(F,D,)A,, (3(G,E,)A,, (3(G,E,)A,, | %89
 (3(A,F,)C, (3(A,F,)C, (3(B,G,)C, (3(B,G,)C, |!f! (C3 =B,) (C{/E}DC_B,) | %91
 (A,3!>(! ^G, A,B,A,=G,)!>)! |!mp! F,3 (G, A,B,C_E) | ^C2 D2- (D/E/F/E/ G/F/E/D/ | %94
 C)!f!(C- C/B,/4A,/4G,/4F,/4E,/4D,/4"_dim." C,)"_poco"B,- (B,/A,/4G,/4F,/4E,/4D,/4C,/4) | %95
 (B,,>A,, B,,/C,/D,/B,,/) (^G,,2 A,,) z | z!p! (F,A,C FA"_dolce"cc) | (^c4 dABG) | %98
 (A>G !turn!F4 GE) | !breath!F2 C2 C2 C2 |!p! (A4 B2 E2) | F2 C,2 C,2 C,2 |"_dim." (A,4 B,2 E,2) | %103
!pp! !breath!F,4!>(! F,2 F,2 | F,8!>)! | z8 |] %106
V:2
!f! E,4- E,D,/E,/ (F,/E,/)B,,/G,,/ |!>(! F,,2!>)!!f! F2- FE/D/ (C/B,/)A,/G,/ | %2
 (F,/E,/)D,/C,/ (B,,/A,,/)G,,/^F,,/ (G,,/=A,,/)B,,/C,/ (D,/E,/)F,/^F,/ | %3
 (G,/^F,/)G,/B,/ (G,/F,/)G,/E/ G2 z2 | E2- (E/D/)C/B,/ (C/B,/)A,/G,/ (A,/G,/)F,/E,/ | %5
 (A,,/B,,/)C,/F,/ A,2- (A,CB,A,) | (A,G,) (!turn!G,4 A,F,) | (G,E,)!>(!E,E, E,E,!>)!!p!G,G, | %8
 A,A,A,A, A,A,(CA,) | (^F,G,)G,G, G,G,G,G, | A, z F, z G, z E, z | D, z B,, z E, z!mp! E2 | %12
 (DC) C4 (EC) | (=A,B,)(B,B,) (_A,G,F,=E,) | %14
 (F,/G,/F,/=E,/ F,/C,/A,/F,/) (F,/_E,/D,/E,/ G,/F,/E,/D,/) | E,4 z4 | %16
!f! (E,,/G,,/)B,,/E,/ (G,/B,/)E/G/ (FEDC) | B, z (D,2 F,2 A,2) | G,>B, G,>F, E, z z2 | %19
 z3/2!p! B,,<E,F,/ (3(G,F,^F, (3G,D,E,) | (3G,,(A,,=A,, (3B,,F,,G,, E,,)z/E,/ D,>E, | %21
 (F,2 C2-) (3(CB,=A, (3B,F,B,) | (A,2 G,2) z/!mf! G,/A,/B,/ C/D/E/F/ | (G3 D EG,CB, | %24
 =A,)(F=E_E DC/D/ (3EDC | (3B,)(=E,F, D2-) (3D(CD (3EG,=A,) | B,4 z2 z!mp! (=E | %27
 F2) z (^C D2) z (=A, | B,4-) (B,C B,/=A,/G,/F,/) |!>(! (F3 E D2)!>)! z2 | %30
"_dolce"!p! E,,E,G,E, E,,E,G,E, | D,,D,F,D, D,,D,F,D, | C, z z F,{F,G,} (F,E,){E,F,} (E,D,) | %33
 E, z z E, D, z F, z | (E,4 D,2)!mf! (F>E) | !>!D2 (D,>E,) F,2 (F,,>E,,) | (D,,2 B,,2 _C,4 | %37
 B,,2) z (C!<(! DEF^F)!<)! |!>(! (G3 F!>)! EDCB,) | (=A,B,EG,) (B,ECB, | %40
 A,)(F/E/ D/C/B,/A,/ G,)(E/D/ C/B,/A,/G,/ | F,4) z!mf! (G, A,=A, | %42
 B,>)C !>!_D2- DB,/G,/ (E,/D,/B,,/G,,/) | A,,2 (!>!E2- ECA,F,) | B,>E, G,2- (3(G,=A,B, (3F,CB,) | %45
 G,4 z3/2!f! B,,<C,D,/ | E,4- E,D,/E,/ (F,/E,/)B,,/G,,/ | F,,2 (F2- F/E/).G/.F/ (E/D/).C/.B,/ | %48
 (A,/G,/).F,/.E,/ (D,/C,/).B,,/.A,,/ (G,/F,/).E,/.D,/ (C,/B,,/)A,,/G,,/ | E,,2 E2 z4 | z8 || %51
[K:F]!p! z2 (F,2 E,D,C,B,,) | (A,,>E,,) F,,3 z z2 | z (F,,A,,C, F,2 D,2) | %54
 (E,3/2C,/4D,/4 E,3/2G,/4F,/4 !breath!E,2) (D,2 | %55
 C,/).A,,/.A,,/.A,,/ z .A,, z/"_cresc." .A,,/.A,,/.A,,/ z .A,, | %56
 z/ .D/.D/.D/ z .A,, z/ .^C/.C/.C/ z .D, | %57
!f! (G,,/A,,/4=B,,/4C,/4D,/4E,/4^F,/4!>(! G,)G, z!>)! (=F,E,D,) | z2 (F,2 E,D,C,=B,,) | %59
!p! (C,3 D,)!<(! (E,F,G,B,)!<)! | %60
!>(! (A,3 F,)!>)!!pp! (3(C,/F,/A,/)(3(C,/F,/A,/) (3(C,/F,/A,/)(3(C,/F,/A,/) | %61
"_cresc." (A,3 B, CD _EG) | (F3 D B,)!>(! (_E2 D)!>)! | (CB,A,G,) z/ .A,,/.A,,/.A,,/ z .A, | %64
 D/^C/E-!>(! E/(D/=C/B,/ A,/G,/B,/!>)!A,/ C/B,/A,/G,/) | (F,3 ^F, G,F,G,C) | %66
 (B,2 A,2) z!<(! F,/G,/ A,/B,/C/D/!<)! |!f! _E4- (E/C/A,/^F,/ _E,/C,/A,,/^F,,/) | G,,4 (B,,2 D,2) | %69
 C,2-!<(! (C,/D,/E,/F,/ G,/A,/B,/C/)!<)! (DC/B,/) | A,3 (A, CB, D,G,) | %71
 (F,2 E,/4F,/4B,/4A,/4G,/4F,/4E,/4D,/4 C,)!<(!(C,F,A,)!<)! | %72
 C2 F2- (3F/(^C/D/(3E/D/)A,/ (3(=C/B,/^F,/)(3(G,/B,/D/) | (F,4{G,F,} E,2) z2 | %74
!p!"_cresc." (F,,/G,,/4A,,/4B,,/4C,/4D,/4E,/4 F,) z (G,,/A,,/4B,,/4C,/4D,/4E,/4F,/4 G,) z | %75
 (A,,/B,,/4C,/4D,/4E,/4F,/4G,/4) A,/(C,/4D,/4E,/4F,/4G,/4A,/4 B,)!f!((D D/4)C/4B,/4A,/4G,/4B,/4A,/4>B,/4) | %76
 B,2"_dim." A,2- (3A,/ z/ z/ z z2 | %77
 z2 z/!p!!<(! (E,,/4F,,/4G,,/4!<)!A,,/4B,,/4C,/4!>(! D,/E,/D,/C,/ B,,G,,)!>)! | %78
 F,,2 z2!f! !tenuto!.A,2 !tenuto!.A,2 | (D3 F ED^CE) | A>(E F/^C/D/B,/ A,2)!f! .A,2 | %81
 D3 z/ ^C/ D3/2z/4E/4F3/2z/4D/4 | A,3 z/ ^C,/ D,3/2z/4!breath!E,/4F,3/2z/4D,/4 | %83
 !breath!A,,2!mf! (A,2 ^G,2 =G,2) |"^bien soutenu"!<(! (^F,4 G,2 ^C,2)!<)! | %85
 D,2- D,/(^C,/4D,/4E,/4D,/4C,/4=B,,/4 A,,) (A,,D,!<(!^F,) | A,2!<)!!>(! D2- D(=B,G,E,)!>)! | %87
 (D,4 ^C,) z!p! A,2 | (F,4 G,2 ^C,2) | (A,4 B,2 !breath!E,2) |!f!{/D} (C=B,CD C_B,A,G,) | %91
 F,2!>(! (F,E, F,G,F,E,)!>)! |!mp! D,3 (E, F,E,_E,D,) | %93
 z/ .A,,/.A,,/.A,,/ z .B,, z/ .B,/.B,/.B,/ z .=B, | %94
 z2 C,!f!(C- C/B,/4A,/4G,/4F,/4E,/4D,/4"_dim." C,)"_poco"(B,- | %95
 B,/A,/4G,/4F,/4E,/4D,/4C,/4 B,,/A,,/B,,/D,,/) (E,,2 F,,) z | z!p! (F,,A,,C, F,A,"_dolce"C)A, | %97
 (A,4 B,F,D,E,) | (F,2 !turn!A,,4 B,,G,,) | !breath!A,,2 z2 z/ .A,/.A,/.A,/ z2 | %100
!pp! z2 (F,2 E,D,C,B,,) | (A,,4 B,,2 E,,2) |"_dim." (F,,2 F,2 E,D,C,B,,) | %103
!ppp! !breath!A,,4!>(! B,,2 D,2 | (B,,4 A,,4)!>)! | z8 |] %106

